src/img/icons/facebook.svg

<svg viewBox="0 0 12 24" fill="none" xmlns="http://www.w3.org/2000/svg">
<path d="M3.06332 24V12.7385H0V8.68382H3.06332V5.2206C3.06332 2.49917 4.87284 0 9.04235 0C10.7305 0 11.9788 0.15732 11.9788 0.15732L11.8805 3.9437C11.8805 3.9437 10.6074 3.93166 9.21814 3.93166C7.71455 3.93166 7.47365 4.60522 7.47365 5.72316V8.68382H12L11.8031 12.7385H7.47365V24H3.06332Z" fill="#010101"/>
</svg>

<svg xmlns="http://www.w3.org/2000/svg" fill="none" viewBox="0 0 12 24"><path fill="#010101" d="M3.063 24V12.739H0V8.684h3.063V5.22C3.063 2.499 4.873 0 9.043 0c1.688 0 2.936.157 2.936.157l-.098 3.787s-1.274-.012-2.663-.012c-1.503 0-1.744.673-1.744 1.791v2.96H12l-.197 4.056h-4.33V24h-4.41Z"/></svg>
